X: 1
T:A Glengarry State of Mind  "9 Oct 95"
M:C
L:1/8
Q:80
C:Bill Boxall
S:Reel
K:HP
e|
{g}fA{g}Af-fAdf|
{g}ec{G}ce-eA{d}ce|
{g}fAdf-fA{g}df|  !
{g}Aaecd{g}d{c}de| |
{g}fA{g}Af-fAdf|
{g}ecac{g}eA{d}ce|  !
{g}A2e{g}c-cgec|
{g}Aaecd{g}d{c}df|] [|
a2ga-ag{a}eg|  !
{a}f2d{g}e-ec{g}dB|
ag{f}ga-ag{a}ec|
{g}Aaecd{g}d{c}df| |  !
a2ga-ag{a}eg|
{a}fd{gef}ec{gde}dB{gcd}ce|
{g}A2e{g}c-cgec|  !
{g}Aaecd{g}d{c}de|] [|
{g}f2A{g}f-fd{gdedG}d2|
{g}A2{d}ce-ec{gcecG}c2|  !
{g}fA{g}df-fd{gdedG}d2|
{g}Aaecd{g}d{c}de| |
{g}f2A{g}f-fd{gdedG}d2|  !
{g}ecac{g}ec{gcecG}c2|
{g}A2e{g}c-cgec|
{g}Aaecd{g}d{c}df|] [|  !
a2e{g}c-cA{d}ce|
{a}g2f{g}d-dA{g}df|
{g}e2g{a}c-cege|  !
{g}fa{g}aga{g}a{g}ag| |
a2e{g}c-cA{d}ce|
{a}g2f{g}d-dA{g}df|  !
{g}A2e{g}c-cgec|
{g}Aaecd{g}d{c}d|]
